X: 7
T: The Lisnagun
R: jig
M: 6/8
L: 1/8
K: Amix
|: AFE A3 | Bce c3 | Bce cBA | BAF AFE |
AFE A3 | Bce c3 | Bce cBA | BAG A3 :|
|: e3 cBA | Bce c3 | Bce cBA | BAF AFE |
e3 cBA | Bce c3 | Bce cBA | BAG A3 :|


Tune 3842	Setting 3842

